X:21
T:Piper in the Meadow Straying
Z: id:dc-setdance-23
M:C|
L:1/8
K:G Major
Bc|dedc BcBA|GFGA B2G2|ABcA G2F2|G2B2 B2Bc|!
dedc BcBA|GFGA B2G2|ABcA G2F2|G2B2 G2:|!
GB|A2AB c2A2|BABc d2B2|c2cd efg2|fed^c d2|]!

